source/img/logo/cat-pro.svg

<svg width="268" height="200" viewBox="0 0 268 200" fill="none" xmlns="http://www.w3.org/2000/svg">
<circle cx="136" cy="100" r="100" fill="#68B738"/>
<g clip-path="url(#clip0_2403_774)">
<path d="M246.2 55.5999C248.509 51.9261 251.578 48.7891 255.2 46.3999C257.2 44.9999 258.4 44.9999 259.6 47.5999C261.2 51.3999 262.6 55.3999 261.4 59.5999C261.182 60.3122 261.14 61.0671 261.28 61.799C261.419 62.5309 261.735 63.2177 262.2 63.7999C263.4 65.3999 264.4 66.9999 265.4 68.3999C266.761 70.1274 267.644 72.1825 267.96 74.359C268.276 76.5354 268.014 78.7567 267.2 80.7999C266.466 82.7835 266.327 84.9384 266.8 86.9999C267.2 88.9799 267.2 91.0199 266.8 92.9999C266.638 94.4827 266.038 95.8837 265.076 97.0237C264.115 98.1637 262.835 98.991 261.4 99.3999C258.842 99.8867 256.559 101.314 255 103.4C254.811 103.707 254.546 103.961 254.231 104.136C253.916 104.311 253.561 104.402 253.2 104.4C250.8 104.8 244.8 99.3999 244.8 96.9999V95.7999C245 88.5999 244.6 87.9999 238 84.9999C236.619 84.5127 235.381 83.6877 234.4 82.5999C233.2 80.9999 231.6 81.1999 229.8 81.7999C228 82.3999 227 83.5999 227.2 85.5999C227.803 90.4416 228.004 95.325 227.8 100.2C227.813 100.756 227.95 101.303 228.2 101.8C234.4 110.8 236.8 121.4 239.8 131.6C242.2 139.4 246.6 143.6 254.6 144.2C255.88 144.302 257.151 144.503 258.4 144.8C260.044 145.064 261.57 145.815 262.783 146.956C263.995 148.097 264.837 149.575 265.2 151.2C266.6 155.4 265.8 156.4 261.6 156.4H248.6C246.917 156.485 245.267 155.911 244 154.8C241.976 153.092 239.677 151.739 237.2 150.8C234.462 149.789 232.093 147.977 230.4 145.6C228.057 142.327 225.376 139.31 222.4 136.6C216.8 130.8 210.8 125.2 205.6 119.2C201.641 115.112 199.358 109.688 199.2 104C199.2 102.2 198.8 101.4 196.8 102.2C196.201 102.58 195.509 102.787 194.8 102.8C189.2 102.8 186.4 106.2 184.4 111.2C182.6 115.4 180.2 119.4 178 123.6C176.753 126.229 176.071 129.091 176 132C176 136.8 177.2 138.4 181.6 140C184.4 141 187 142 188.4 144.8C190 148 189.6 148.8 186.2 149H172.6C171.816 149.078 171.027 148.907 170.346 148.512C169.664 148.117 169.123 147.518 168.8 146.8L165.2 140.8C164.139 139.234 163.459 137.442 163.216 135.566C162.973 133.691 163.173 131.784 163.8 130C164.666 126.527 164.734 122.903 164 119.4C163.496 116.96 163.539 114.439 164.127 112.018C164.715 109.597 165.833 107.337 167.4 105.4C168.6 104 168.6 103.4 166.6 103C158.422 101.263 150.493 98.5079 143 94.7999C142.947 94.7999 142.896 94.7788 142.859 94.7413C142.821 94.7038 142.8 94.6529 142.8 94.5999C136.4 92.1999 135.2 92.5999 133.4 99.1999C131.8 104.8 130.2 110.4 129 116.2C127.6 122.6 129.2 128.6 131.2 134.6C132 137 134.4 136.8 136.2 137.4C140.2 138.6 143.6 140.2 145.2 144.4C146.6 147.6 146.4 148 143 148C139.6 148 136.2 147.8 132.6 148C129.562 148.055 126.597 147.067 124.2 145.2C114.6 138.8 111.8 129 111 118.4C110.6 111.8 107 106.6 102.8 101.6C102 100.6 101.2 100.2 100 101C95.707 103.367 91.2249 105.374 86.6 107C76.9485 110.408 68.4793 116.517 62.2 124.6C59.8553 127.55 58.3368 131.07 57.8 134.8C57.2 138.4 58.2 140 61.8 141C65.4 142 67.2 144 67.6 147.8C67.8 149.4 67.2 150.2 65.6 150.2H49.4C48.8698 150.162 48.3566 149.997 47.9039 149.719C47.4512 149.44 47.0725 149.056 46.8 148.6C44.2877 145.489 42.9433 141.598 43 137.6C42.8951 130.69 43.4982 123.787 44.8 117C45.067 114.967 45.8259 113.03 47.0108 111.358C48.1958 109.685 49.7711 108.326 51.6 107.4C63.4 101.8 69.6 91.1999 75.2 80.1999C76.4 77.9999 75.4 77.5999 73.4 77.7999C67.8027 78.5769 62.4994 80.7809 58 84.1999C52.1084 88.4976 46.5585 93.2451 41.4 98.3999C35.8993 103.987 28.6054 107.457 20.8 108.2C6.20002 109 -0.599978 100.8 2.18973e-05 87.5999C0.134147 83.0991 1.83132 78.7854 4.80002 75.3999C5.83206 74.0619 7.23949 73.0619 8.84256 72.5275C10.4456 71.9931 12.1716 71.9487 13.8 72.3999C16.8 73.1999 17.6 74.7999 16.4 77.7999C15.8 78.9999 15 79.9999 14.4 81.1999C13.5372 82.4258 12.8631 83.7741 12.4 85.1999C10.2 91.1999 13.2 95.3999 19.4 95.9999C26 96.5999 31.4 93.7999 36.4 89.7999C42.4239 84.9764 47.8014 79.3972 52.4 73.1999C55.8385 68.6747 60.1682 64.9025 65.1217 62.1161C70.0751 59.3298 75.5472 57.5886 81.2 56.9999C85.8 56.3999 89.8 54.3999 94.2 53.1999C102.429 50.6911 110.998 49.4766 119.6 49.5999C123.584 49.7658 127.553 49.0131 131.2 47.3999C141 43.3999 151.2 43.3999 161.4 45.3999C169.4 46.9999 177.4 48.9999 185.2 50.9999C189.842 51.8648 194.615 51.7285 199.2 50.5999C207.977 48.375 216.956 47.0349 226 46.5999C231.925 46.3116 237.83 47.479 243.2 49.9999C247.2 51.7999 247.2 51.7999 246.2 55.5999Z" fill="black"/>
</g>
<defs>
<clipPath id="clip0_2403_774">
<rect width="268" height="112" fill="white" transform="translate(0 44)"/>
</clipPath>
</defs>
</svg>

<svg width="268" height="200" fill="none" xmlns="http://www.w3.org/2000/svg"><circle cx="136" cy="100" r="100" fill="#68B738"/><g clip-path="url(#a)"><path d="M246.2 55.6c2.3-3.7 5.4-6.8 9-9.2 2-1.4 3.2-1.4 4.4 1.2 1.6 3.8 3 7.8 1.8 12a4.6 4.6 0 0 0 .8 4.2l3.2 4.6a12.5 12.5 0 0 1 1.8 12.4c-.7 2-.9 4.1-.4 6.2.4 2 .4 4 0 6a7.5 7.5 0 0 1-5.4 6.4c-2.6.5-4.8 2-6.4 4a2.1 2.1 0 0 1-1.8 1c-2.4.4-8.4-5-8.4-7.4v-1.2c.2-7.2-.2-7.8-6.8-10.8a8.8 8.8 0 0 1-3.6-2.4c-1.2-1.6-2.8-1.4-4.6-.8-1.8.6-2.8 1.8-2.6 3.8.6 4.8.8 9.7.6 14.6 0 .6.1 1.1.4 1.6 6.2 9 8.6 19.6 11.6 29.8 2.4 7.8 6.8 12 14.8 12.6 1.3.1 2.6.3 3.8.6a8.3 8.3 0 0 1 6.8 6.4c1.4 4.2.6 5.2-3.6 5.2h-13c-1.7 0-3.3-.5-4.6-1.6-2-1.7-4.3-3-6.8-4-2.7-1-5.1-2.8-6.8-5.2-2.3-3.3-5-6.3-8-9-5.6-5.8-11.6-11.4-16.8-17.4-4-4-6.2-9.5-6.4-15.2 0-1.8-.4-2.6-2.4-1.8-.6.4-1.3.6-2 .6-5.6 0-8.4 3.4-10.4 8.4-1.8 4.2-4.2 8.2-6.4 12.4-1.2 2.6-2 5.5-2 8.4 0 4.8 1.2 6.4 5.6 8 2.8 1 5.4 2 6.8 4.8 1.6 3.2 1.2 4-2.2 4.2h-13.6a3.8 3.8 0 0 1-3.8-2.2l-3.6-6a12.1 12.1 0 0 1-1.4-10.8c.9-3.5 1-7.1.2-10.6a16.8 16.8 0 0 1 3.4-14c1.2-1.4 1.2-2-.8-2.4a100.1 100.1 0 0 1-23.8-8.4c-6.4-2.4-7.6-2-9.4 4.6-1.6 5.6-3.2 11.2-4.4 17a34 34 0 0 0 2.2 18.4c.8 2.4 3.2 2.2 5 2.8 4 1.2 7.4 2.8 9 7 1.4 3.2 1.2 3.6-2.2 3.6-3.4 0-6.8-.2-10.4 0-3 0-6-1-8.4-2.8-9.6-6.4-12.4-16.2-13.2-26.8-.4-6.6-4-11.8-8.2-16.8-.8-1-1.6-1.4-2.8-.6a88.6 88.6 0 0 1-13.4 6 53.4 53.4 0 0 0-24.4 17.6c-2.3 3-3.9 6.5-4.4 10.2-.6 3.6.4 5.2 4 6.2s5.4 3 5.8 6.8c.2 1.6-.4 2.4-2 2.4H49.4a3.3 3.3 0 0 1-2.6-1.6c-2.5-3.1-3.9-7-3.8-11-.1-7 .5-13.8 1.8-20.6a12.6 12.6 0 0 1 6.8-9.6c11.8-5.6 18-16.2 23.6-27.2 1.2-2.2.2-2.6-1.8-2.4A33 33 0 0 0 58 84.2c-5.9 4.3-11.4 9-16.6 14.2-5.5 5.6-12.8 9-20.6 9.8C6.2 109-.6 100.8 0 87.6c.1-4.5 1.8-8.8 4.8-12.2a8.5 8.5 0 0 1 9-3c3 .8 3.8 2.4 2.6 5.4l-2 3.4a15 15 0 0 0-2 4c-2.2 6 .8 10.2 7 10.8 6.6.6 12-2.2 17-6.2 6-4.8 11.4-10.4 16-16.6A41.6 41.6 0 0 1 81.2 57c4.6-.6 8.6-2.6 13-3.8a83 83 0 0 1 25.4-3.6c4 .2 8-.6 11.6-2.2 9.8-4 20-4 30.2-2 8 1.6 16 3.6 23.8 5.6 4.6.9 9.4.7 14-.4 8.8-2.2 17.8-3.6 26.8-4 6-.3 11.8.9 17.2 3.4 4 1.8 4 1.8 3 5.6Z" fill="#000"/></g><defs><clipPath id="a"><path fill="#fff" transform="translate(0 44)" d="M0 0h268v112H0z"/></clipPath></defs></svg>
